X: 1312
T: Bruce Smith's Polka
B: australian traditional tunes wiki
M:2/4
L:1/16
R: Polka
Q: 1/4=100
K:D
V:1 
|:"D"f2df "A"e2ce|"D"d2A2 A3G|F2A2 d2Ad|"G"c2B2B4|"D"Adfa "A"g2eg|"D"f2df "A"e3d|"G"d2AA "A"B2Bc|"D"e2d2d4|
"D"D2F2 AdAF|"G"E2B2B4|"A"A2c2 cecB|"D"A2d2d4|D2F2 AdAF|"G"E2B2 BdBG|"A"A2c2 cecB|"D"A2d2d4:|
% abcbook-tune_id 6342d53a47647b93e3d01238


% abcbook-boost 0
% abcbook-tablature 
% abcbook-transpose 
% abcbook-lastupdated 1665324358593
% abcbook-soundfonts 
% abcbook-repeats 1
% NFF Book 2015

